dist/assets/images/logo/logo.svg

<svg width="207" height="31" viewBox="0 0 207 31" fill="none" xmlns="http://www.w3.org/2000/svg">
<g clip-path="url(#clip0_611_26887)">
<path d="M16.9388 19.9542C18.5658 19.9542 20.0065 19.8302 21.263 19.5822C22.5175 19.3342 23.687 19.0823 24.7738 18.8227C25.2478 18.6929 25.5873 18.6677 25.7922 18.7413C25.9951 18.8169 26.1814 18.9719 26.3511 19.2102L28.0795 21.5352C28.3155 21.8374 28.4004 22.0622 28.3342 22.2133C28.2659 22.3644 28.0795 22.4942 27.7753 22.6008C25.9433 23.3119 24.0182 23.7904 22.002 24.0384C19.9838 24.2864 17.9924 24.4104 16.0259 24.4104C13.2459 24.4104 10.8447 24.1469 8.82855 23.6199C6.8103 23.0929 5.14809 22.3334 3.84399 21.3434C2.53575 20.3533 1.56906 19.1424 0.94185 17.7106C0.31257 16.2787 0 14.6706 0 12.8842C0 11.1192 0.39744 9.51493 1.19646 8.07343C1.99341 6.63193 3.105 5.39386 4.52916 4.36118C5.95332 3.32849 7.67349 2.53218 9.69174 1.97224C11.71 1.4123 13.9394 1.1333 16.3799 1.1333C18.1104 1.1333 19.8058 1.22436 21.4659 1.40843C23.126 1.59249 24.7551 1.96255 26.349 2.52249C26.7216 2.6523 26.941 2.78018 27.0094 2.90999C27.0777 3.0398 26.9928 3.2878 26.7548 3.65205L25.1774 5.88018C25.0077 6.18243 24.8297 6.36455 24.6434 6.42849C24.4571 6.49243 24.1259 6.47111 23.6518 6.36455C22.4305 6.08555 21.2941 5.87436 20.2446 5.73486C19.193 5.59536 18.0235 5.52561 16.7339 5.52561C15.3428 5.52561 14.1133 5.71549 13.0451 6.09136C11.977 6.46918 11.0786 6.98455 10.35 7.64136C9.62136 8.29818 9.06867 9.07318 8.69607 9.96636C8.32347 10.8596 8.13717 11.8341 8.13717 12.8881C8.13717 13.9421 8.28 14.9012 8.5698 15.7614C8.85753 16.6236 9.35019 17.3657 10.0457 17.9896C10.7412 18.6134 11.6479 19.0978 12.7678 19.4427C13.8876 19.7817 15.2766 19.9542 16.9388 19.9542Z" fill="black"/>
<path d="M38.5832 2.67956C38.5832 3.43325 38.1671 4.06294 37.337 4.56862C36.5049 5.07431 35.4968 5.32813 34.3107 5.32813C33.1577 5.32813 32.1662 5.07625 31.334 4.56862C30.5019 4.06294 30.0879 3.43325 30.0879 2.67956C30.0879 2.29206 30.1976 1.9375 30.4191 1.61394C30.6385 1.29037 30.9449 1.01138 31.334 0.775C31.7232 0.538625 32.1724 0.350688 32.6816 0.20925C33.1908 0.06975 33.7332 0 34.3086 0C34.8841 0 35.4368 0.06975 35.9625 0.20925C36.4883 0.34875 36.9458 0.538625 37.335 0.775C37.7241 1.01138 38.0305 1.29231 38.2499 1.61394C38.4714 1.9375 38.5832 2.29206 38.5832 2.67956ZM37.9208 23.4748C37.9208 23.7111 37.8525 23.8681 37.7179 23.9436C37.5813 24.0192 37.277 24.056 36.803 24.056H31.6155C31.2409 24.056 30.9718 24.0192 30.802 23.9436C30.6323 23.8681 30.5474 23.7131 30.5474 23.4748V7.68413C30.5474 7.44775 30.6323 7.29081 30.802 7.21525C30.9718 7.13969 31.2429 7.10288 31.6155 7.10288H36.803C37.277 7.10288 37.5834 7.14163 37.7179 7.21525C37.8525 7.29081 37.9208 7.44775 37.9208 7.68413V23.4748Z" fill="black"/>
<path d="M118.096 11.0435H117.792L115.705 14.0466L111.482 19.987C111.11 20.5469 110.727 20.9228 110.338 21.1165C109.946 21.3103 109.363 21.4072 108.582 21.4072H105.784C104.935 21.4072 104.351 21.3103 104.028 21.1165C103.705 20.9228 103.341 20.5469 102.935 19.987L99.7805 15.7904L96.6279 11.431H96.3216V23.4105C96.3216 23.7128 96.2367 23.8949 96.0669 23.9589C95.8972 24.0228 95.5908 24.0557 95.152 24.0557H89.9646C89.5899 24.0557 89.3043 24.0228 89.0993 23.9589C88.8965 23.8949 88.793 23.7109 88.793 23.4105V3.68098C88.793 2.86336 89.0393 2.28211 89.532 1.93723C90.0246 1.59236 90.865 1.41992 92.0532 1.41992H95.0071C95.9572 1.41992 96.661 1.5323 97.1206 1.75898C97.5801 1.98567 98.0127 2.37898 98.4205 2.93698L103.972 10.8149L107.131 15.4009H107.334L110.797 10.3634L115.993 3.00092C116.401 2.41967 116.85 2.01086 117.342 1.77448C117.835 1.53811 118.624 1.41992 119.713 1.41992H122.209C123.296 1.41992 124.109 1.56523 124.654 1.85586C125.198 2.14648 125.469 2.70061 125.469 3.51823V23.4086C125.469 23.7109 125.384 23.893 125.213 23.9569C125.041 24.0209 124.734 24.0538 124.291 24.0538H119.22C118.843 24.0538 118.562 24.0209 118.373 23.9569C118.185 23.893 118.092 23.7089 118.092 23.4086V11.0435H118.096Z" fill="black"/>
<path d="M153.546 15.4978C153.546 18.3401 152.478 20.5353 150.342 22.0853C148.205 23.6353 144.949 24.4103 140.575 24.4103C136.166 24.4103 132.945 23.6353 130.911 22.0853C128.876 20.5353 127.859 18.3614 127.859 15.5636C127.859 14.1861 128.155 12.9441 128.749 11.8339C129.341 10.7257 130.19 9.79569 131.294 9.04007C132.395 8.28638 133.736 7.70513 135.311 7.29632C136.889 6.8875 138.677 6.68213 140.679 6.68213C144.951 6.68213 148.164 7.46294 150.319 9.02263C152.468 10.5862 153.546 12.7426 153.546 15.4978ZM145.864 15.5946C145.864 14.8623 145.779 14.1958 145.61 13.5932C145.44 12.9906 145.152 12.4733 144.744 12.0432C144.337 11.6131 143.811 11.274 143.167 11.026C142.523 10.778 141.724 10.654 140.776 10.654C138.977 10.654 137.648 11.0899 136.783 11.9618C135.918 12.8337 135.485 14.0117 135.485 15.4978C135.485 17.1117 135.883 18.3401 136.682 19.179C137.479 20.0179 138.793 20.4384 140.623 20.4384C141.571 20.4384 142.378 20.3144 143.039 20.0664C143.699 19.8184 144.241 19.4754 144.666 19.0337C145.09 18.5939 145.394 18.0824 145.581 17.4992C145.771 16.9199 145.864 16.2844 145.864 15.5946Z" fill="black"/>
<path d="M155.934 15.7247C155.934 14.5196 156.17 13.3668 156.646 12.2702C157.12 11.1716 157.848 10.2087 158.834 9.37942C159.817 8.55017 161.088 7.89336 162.649 7.40899C164.207 6.92461 166.056 6.68242 168.194 6.68242C169.076 6.68242 169.931 6.70373 170.763 6.74636C171.593 6.78898 172.535 6.88586 173.587 7.03698V1.12955C173.587 0.871859 173.661 0.699422 173.814 0.612234C173.965 0.526984 174.259 0.482422 174.698 0.482422H179.852C180.223 0.482422 180.5 0.519234 180.685 0.594797C180.869 0.670359 180.962 0.848609 180.962 1.12761V21.018V21.7446C180.962 21.9925 180.927 22.2347 180.861 22.4711C180.825 22.7075 180.573 22.9226 180.099 23.1163C179.625 23.31 179.024 23.4767 178.296 23.6162C177.567 23.7557 176.756 23.8797 175.859 23.9882C174.963 24.0947 174.075 24.1761 173.195 24.2304C172.316 24.2846 171.488 24.3272 170.709 24.3602C169.931 24.3931 169.287 24.4086 168.78 24.4086C166.344 24.4086 164.305 24.1936 162.663 23.7634C161.022 23.3333 159.703 22.7307 158.703 21.9557C157.706 21.1807 156.993 20.2662 156.571 19.2122C156.145 18.1582 155.934 16.9957 155.934 15.7247ZM163.613 15.7887C163.613 17.5111 164.147 18.7162 165.215 19.406C166.284 20.0957 167.768 20.4387 169.666 20.4387C170.14 20.4387 170.775 20.4057 171.572 20.3418C172.369 20.2779 173.038 20.181 173.582 20.0512V11.0437C172.701 10.9139 171.92 10.8287 171.243 10.786C170.564 10.7434 169.954 10.7221 169.411 10.7221C167.683 10.7221 166.284 11.1212 165.215 11.9175C164.147 12.7119 163.613 14.0023 163.613 15.7887Z" fill="black"/>
<path d="M207 21.9556C207 22.2346 206.94 22.4729 206.822 22.6667C206.704 22.8604 206.408 23.0445 205.934 23.215C205.155 23.4514 204.317 23.6451 203.421 23.7963C202.524 23.9474 201.609 24.0656 200.68 24.1508C199.749 24.2361 198.811 24.3019 197.863 24.3446C196.915 24.3872 196.018 24.4085 195.172 24.4085C192.87 24.4085 190.966 24.269 189.461 23.9881C187.956 23.7091 186.745 23.3254 185.832 22.8411C184.917 22.3567 184.275 21.7871 183.903 21.1303C183.53 20.4734 183.344 19.7682 183.344 19.0145C183.344 18.1756 183.563 17.4064 184.004 16.705C184.445 16.0056 185.105 15.3972 185.987 14.8799C186.869 14.3626 187.978 13.9596 189.32 13.6689C190.659 13.3783 192.245 13.233 194.077 13.233H199.672V12.7157C199.672 12.4154 199.62 12.1248 199.519 11.8438C199.417 11.5648 199.204 11.3226 198.883 11.1173C198.56 10.9138 198.111 10.7453 197.536 10.6174C196.958 10.4876 196.196 10.4236 195.246 10.4236C194.737 10.4236 194.16 10.4391 193.518 10.4721C192.874 10.505 192.228 10.5476 191.584 10.6019C190.941 10.6561 190.313 10.7201 189.703 10.7956C189.092 10.8712 188.55 10.9526 188.076 11.0378C187.635 11.1018 187.329 11.1018 187.161 11.0378C186.991 10.9739 186.873 10.8344 186.805 10.6174L185.991 8.35632C185.89 8.11995 185.882 7.95332 185.966 7.85645C186.051 7.75957 186.229 7.6782 186.501 7.61426C188.026 7.26938 189.628 7.02332 191.307 6.8722C192.986 6.72107 194.656 6.64551 196.316 6.64551C200.003 6.64551 202.704 7.14538 204.423 8.14707C206.141 9.15457 207 10.6348 207 12.5936V21.9556ZM199.624 16.3698H195.606C195.13 16.3698 194.623 16.3911 194.081 16.4338C193.539 16.4764 193.038 16.5791 192.58 16.7399C192.123 16.9007 191.742 17.1332 191.435 17.4335C191.131 17.7358 190.978 18.1446 190.978 18.6599C190.978 19.4136 191.375 19.9406 192.174 20.2429C192.971 20.5451 194.048 20.6943 195.404 20.6943C195.606 20.6943 195.878 20.6885 196.217 20.6788C196.557 20.6691 196.921 20.6459 197.31 20.6149C197.699 20.5819 198.099 20.5393 198.504 20.4851C198.912 20.4308 199.285 20.3611 199.624 20.2758V16.3698Z" fill="black"/>
<path d="M54.4383 20.0667C53.7635 20.026 53.2315 19.9136 52.8506 19.7295C52.3579 19.4932 52.1116 19.0611 52.1116 18.4333V10.5593H57.7068C58.1125 10.5593 58.3527 10.5109 58.4189 10.416C58.4872 10.3172 58.5203 10.1622 58.5203 9.94709V7.65116C58.5203 7.47872 58.4769 7.34503 58.3961 7.25009C58.3113 7.15128 58.0815 7.10284 57.7068 7.10284H52.1116V2.77641C52.1116 2.51872 52.0164 2.34628 51.8322 2.26103C51.6459 2.17578 51.3995 2.15447 51.0952 2.19709L46.415 3.16584C46.0403 3.22978 45.7629 3.31697 45.5746 3.42353C45.3883 3.53009 45.2765 3.71416 45.2434 3.97184L44.8852 7.00791L41.1282 7.55622C40.7535 7.62016 40.5258 7.69184 40.4389 7.76547C40.354 7.84297 40.3105 7.98634 40.3105 8.20141V9.94709C40.3105 10.1195 40.3623 10.2668 40.4637 10.383C40.5652 10.5032 40.8011 10.5613 41.1758 10.5613H44.7383V19.4098C44.7383 20.9405 45.3655 22.0952 46.6199 22.8818C47.0919 23.1763 47.6797 23.4147 48.3835 23.6026C49.5572 23.9068 51.0559 24.0598 52.8754 24.0598H59.6174C59.9838 24.0598 60.226 23.7053 60.0728 23.3953L58.6839 20.5782C58.5307 20.2682 58.1995 20.0705 57.8352 20.0705H54.4383V20.0667Z" fill="black"/>
<path d="M85.3816 7.10496H79.3269C78.8176 7.10496 78.4802 7.1534 78.3105 7.25221C78.1407 7.34715 78.0062 7.51571 77.9048 7.75209L75.2448 13.2953L74.8515 14.111L73.3404 17.4357L71.9659 14.2078L71.73 13.6808L69.0679 7.68621C68.9665 7.44984 68.8216 7.2929 68.6353 7.21734C68.449 7.14371 68.1013 7.10303 67.592 7.10303H61.6387C61.3675 7.10303 61.1564 7.14565 61.0032 7.2309C60.8521 7.32003 60.8418 7.4789 60.9805 7.71528L67.9025 21.6614L68.4014 22.667C68.7057 23.2463 69.0286 23.6241 69.3681 23.7946C69.5565 23.8915 69.8173 23.9612 70.1443 24.0038L70.1174 24.0562L69.6061 25.0947L69.2191 25.8793C68.8775 26.5672 68.1427 27.005 67.3374 27.005H63.5555C63.1747 27.005 62.8331 27.2104 62.6758 27.5359L61.3468 30.3046C61.1937 30.6301 61.4462 30.9982 61.8292 30.9982H66.6916C68.6167 30.9827 70.2334 30.7618 71.5395 30.3337C71.732 30.2717 71.9204 30.2038 72.1005 30.1283C72.1688 30.1031 72.2392 30.076 72.3075 30.045C73.7627 29.4095 74.8826 28.3497 75.663 26.8655V26.8965L76.611 25.1179L85.9405 7.62228C86.1454 7.27934 85.9591 7.10496 85.3816 7.10496Z" fill="black"/>
</g>
<defs>
<clipPath id="clip0_611_26887">
<rect width="207" height="31" fill="white"/>
</clipPath>
</defs>
</svg>

<svg width="207" height="31" fill="none" xmlns="http://www.w3.org/2000/svg"><g clip-path="url(#clip0_611_26887)" fill="#000"><path d="M16.939 19.954c1.627 0 3.067-.124 4.324-.372a91.81 91.81 0 003.51-.76c.475-.13.814-.154 1.02-.08.202.075.388.23.558.468l1.729 2.325c.236.302.32.527.254.678-.068.151-.255.281-.559.388a23.982 23.982 0 01-5.773 1.437 48.96 48.96 0 01-5.976.372c-2.78 0-5.181-.263-7.197-.79-2.019-.527-3.68-1.287-4.985-2.277-1.308-.99-2.275-2.2-2.902-3.632C.312 16.279 0 14.67 0 12.884c0-1.765.397-3.37 1.196-4.81.797-1.442 1.909-2.68 3.333-3.713 1.424-1.033 3.144-1.829 5.163-2.389 2.018-.56 4.247-.839 6.688-.839 1.73 0 3.426.091 5.086.275 1.66.184 3.29.555 4.883 1.114.373.13.592.258.66.388.069.13-.016.378-.254.742L25.177 5.88c-.17.302-.347.485-.534.548-.186.064-.517.043-.991-.063a37.722 37.722 0 00-3.407-.63 26.84 26.84 0 00-3.511-.21c-1.391 0-2.62.19-3.689.566-1.068.378-1.966.894-2.695 1.55a6.433 6.433 0 00-1.654 2.325c-.373.894-.559 1.868-.559 2.922s.143 2.013.433 2.873c.288.863.78 1.605 1.476 2.229.695.623 1.602 1.108 2.722 1.453 1.12.339 2.509.511 4.17.511zM38.583 2.68c0 .753-.416 1.383-1.246 1.889-.832.505-1.84.76-3.026.76-1.153 0-2.145-.253-2.977-.76-.832-.506-1.246-1.136-1.246-1.89 0-.387.11-.741.331-1.065a2.9 2.9 0 01.915-.839 5.37 5.37 0 011.348-.566A6.145 6.145 0 0134.309 0c.575 0 1.128.07 1.654.21.525.139.983.329 1.372.565a2.9 2.9 0 01.915.839c.221.323.333.678.333 1.066zm-.662 20.795c0 .236-.069.393-.203.469-.137.075-.441.112-.915.112h-5.187c-.375 0-.644-.037-.814-.112-.17-.076-.255-.23-.255-.47V7.685c0-.236.085-.393.255-.469.17-.075.44-.112.814-.112h5.187c.474 0 .78.039.915.112.134.076.203.233.203.47v15.79zm80.175-12.432h-.304l-2.087 3.004-4.223 5.94c-.372.56-.755.936-1.144 1.13-.392.193-.975.29-1.756.29h-2.798c-.849 0-1.433-.097-1.756-.29-.323-.194-.687-.57-1.093-1.13l-3.154-4.197-3.153-4.359h-.306v11.98c0 .302-.085.484-.255.548-.17.064-.476.097-.915.097h-5.187c-.375 0-.66-.033-.866-.097-.203-.064-.306-.248-.306-.549V3.681c0-.818.246-1.399.739-1.744s1.333-.517 2.521-.517h2.954c.95 0 1.654.112 2.114.339.46.227.892.62 1.3 1.178l5.551 7.878 3.159 4.586h.203l3.463-5.038 5.196-7.362c.408-.581.857-.99 1.349-1.227.493-.236 1.282-.354 2.371-.354h2.496c1.087 0 1.9.145 2.445.436.544.29.815.845.815 1.662v19.89c0 .303-.085.485-.256.549-.172.064-.479.097-.922.097h-5.071c-.377 0-.658-.033-.847-.097-.188-.064-.281-.248-.281-.548V11.044h.004zm35.45 4.455c0 2.842-1.068 5.037-3.204 6.587-2.137 1.55-5.393 2.325-9.767 2.325-4.409 0-7.63-.775-9.664-2.325-2.035-1.55-3.052-3.724-3.052-6.521 0-1.378.296-2.62.89-3.73.592-1.108 1.441-2.038 2.545-2.794 1.101-.754 2.442-1.335 4.017-1.744 1.578-.409 3.366-.614 5.368-.614 4.272 0 7.485.78 9.64 2.34 2.149 1.564 3.227 3.72 3.227 6.476zm-7.682.097c0-.733-.085-1.4-.254-2.002a3.654 3.654 0 00-.866-1.55c-.407-.43-.933-.769-1.577-1.017-.644-.248-1.443-.372-2.391-.372-1.799 0-3.128.436-3.993 1.308-.865.872-1.298 2.05-1.298 3.536 0 1.614.398 2.842 1.197 3.681.797.839 2.111 1.26 3.941 1.26.948 0 1.755-.125 2.416-.373.66-.248 1.202-.59 1.627-1.032.424-.44.728-.952.915-1.535.19-.58.283-1.215.283-1.904zm10.07.13c0-1.205.236-2.358.712-3.455.474-1.098 1.202-2.061 2.188-2.89.983-.83 2.254-1.487 3.815-1.971 1.558-.484 3.407-.727 5.545-.727.882 0 1.737.022 2.569.064.83.043 1.772.14 2.824.291V1.13c0-.258.074-.43.227-.518.151-.085.445-.13.884-.13h5.154c.371 0 .648.037.833.113.184.075.277.254.277.533v20.617c0 .247-.035.49-.101.726-.036.236-.288.452-.762.645-.474.194-1.075.36-1.803.5a36.1 36.1 0 01-2.437.372 46.47 46.47 0 01-2.664.242c-.879.055-1.707.097-2.486.13-.778.033-1.422.049-1.929.049-2.436 0-4.475-.215-6.117-.646-1.641-.43-2.96-1.032-3.96-1.807-.997-.775-1.71-1.69-2.132-2.744-.426-1.054-.637-2.216-.637-3.487zm7.679.064c0 1.722.534 2.927 1.602 3.617 1.069.69 2.553 1.033 4.451 1.033.474 0 1.109-.033 1.906-.097.797-.064 1.466-.161 2.01-.29v-9.008a28.615 28.615 0 00-2.339-.258 29.52 29.52 0 00-1.832-.064c-1.728 0-3.127.4-4.196 1.196-1.068.794-1.602 2.084-1.602 3.87zM207 21.956c0 .279-.06.517-.178.71-.118.194-.414.378-.888.549-.779.236-1.617.43-2.513.581a36.67 36.67 0 01-2.741.355 60.87 60.87 0 01-5.508.258c-2.302 0-4.206-.14-5.711-.42-1.505-.28-2.716-.664-3.629-1.148-.915-.484-1.557-1.054-1.929-1.71a4.215 4.215 0 01-.559-2.116c0-.84.219-1.609.66-2.31.441-.7 1.101-1.308 1.983-1.825.882-.517 1.991-.92 3.333-1.211 1.339-.29 2.925-.436 4.757-.436h5.595v-.517c0-.3-.052-.591-.153-.872-.102-.28-.315-.521-.636-.727-.323-.203-.772-.372-1.347-.5-.578-.13-1.34-.193-2.29-.193-.509 0-1.086.015-1.728.048a58.66 58.66 0 00-1.934.13 48.51 48.51 0 00-1.881.194 29.91 29.91 0 00-1.627.242c-.441.064-.747.064-.915 0-.17-.064-.288-.204-.356-.42l-.814-2.262c-.101-.236-.109-.403-.025-.5.085-.096.263-.178.535-.242a36.693 36.693 0 014.806-.742 55.854 55.854 0 015.009-.226c3.687 0 6.388.5 8.107 1.501 1.718 1.008 2.577 2.488 2.577 4.447v9.362zm-7.376-5.586h-4.018c-.476 0-.983.021-1.525.064a5.92 5.92 0 00-1.501.306c-.457.16-.838.393-1.145.694-.304.302-.457.71-.457 1.226 0 .754.397 1.28 1.196 1.583.797.302 1.874.451 3.23.451.202 0 .474-.005.813-.015.34-.01.704-.033 1.093-.064.389-.033.789-.076 1.194-.13a10.02 10.02 0 001.12-.21V16.37zM54.438 20.067c-.675-.041-1.207-.153-1.587-.337-.493-.237-.74-.669-.74-1.297V10.56h5.596c.405 0 .646-.048.712-.143.068-.099.101-.254.101-.469V7.651a.601.601 0 00-.124-.4c-.085-.1-.315-.148-.69-.148h-5.594V2.776c0-.257-.096-.43-.28-.515-.186-.085-.432-.107-.737-.064l-4.68.969c-.375.064-.652.151-.84.258-.187.106-.299.29-.332.548l-.358 3.036-3.757.548c-.374.064-.602.136-.69.21-.084.077-.128.22-.128.435v1.746c0 .173.052.32.154.436.101.12.337.178.712.178h3.562v8.849c0 1.53.627 2.685 1.882 3.472.472.294 1.06.533 1.764.72 1.173.305 2.672.458 4.491.458h6.742c.367 0 .609-.355.456-.665l-1.39-2.817a.94.94 0 00-.848-.508h-3.397v-.003zM85.382 7.105h-6.055c-.51 0-.847.048-1.016.147-.17.095-.305.264-.406.5l-2.66 5.543-.394.816-1.51 3.325-1.375-3.228-.236-.527-2.662-5.995c-.102-.236-.246-.393-.433-.469-.186-.073-.534-.114-1.043-.114h-5.953c-.272 0-.483.043-.636.128-.15.089-.161.248-.023.484l6.923 13.946.498 1.006c.305.58.628.957.967 1.128.189.096.45.166.776.209l-.027.052-.51 1.039-.388.784c-.341.688-1.076 1.126-1.882 1.126h-3.782a.966.966 0 00-.88.53l-1.328 2.77c-.153.325.1.693.482.693h4.863c1.925-.015 3.541-.236 4.848-.664.192-.062.38-.13.56-.206.069-.025.14-.052.208-.083 1.455-.636 2.575-1.695 3.355-3.18v.032l.948-1.78 9.33-17.495c.204-.343.018-.517-.56-.517z"/></g><defs><clipPath id="clip0_611_26887"><path fill="#fff" d="M0 0h207v31H0z"/></clipPath></defs></svg>
